dist/svg/collapse-right.svg

<!-- Generated by Trend Micro Style Portal -->
<svg version="1.1" xmlns="http://www.w3.org/2000/svg" width="16" height="16" viewBox="0 0 16 16">
  <title>collapse-right</title>
  <path fill="rgb(34,34,34)" d="M9.5 12.5l-1-1 3.5-3.5-3.5-3.5 1-1 4.5 4.5-4.5 4.5zM3.5 12.5l-1-1 3.5-3.5-3.5-3.5 1-1 4.5 4.5-4.5 4.5z"></path>
</svg>

<svg width="16" height="16" viewBox="0 0 16 16" fill="rgb(34, 34, 34)" xmlns="http://www.w3.org/2000/svg"><title>collapse-right</title><path d="M9.5 12.5L8.5 11.5L12 8L8.5 4.5L9.5 3.5L14 8L9.5 12.5ZM3.5 12.5L2.5 11.5L6 8L2.5 4.5L3.5 3.5L8 8L3.5 12.5Z" fill="rgb(34, 34, 34)" fill-opacity="1.00"/></svg>
